img/logo.svg

<svg width="136" height="80" viewBox="0 0 136 80" fill="none" xmlns="http://www.w3.org/2000/svg">
<path d="M130.694 24.6431V46.9896L117.276 55.1766V24.6431H112.824V60.4566H117.153L117.167 60.4799L117.205 60.4566H117.276V60.4134L130.694 52.2269V69.3045H135.145V24.6431H130.694Z" fill="white"/>
<path d="M32.0616 51.4399H50.1217V46.9738H32.0616V29.1092H50.1217V24.6242H32.0616H27.6102V29.1092V69.2856H27.6421H32.0616H58.9931V64.8384H32.0616V51.4399Z" fill="white"/>
<path d="M23.2435 24.6138H18.7921V24.6431H5.19382H0.742432V29.0904V55.9404V60.3723V60.4065H5.19382V60.3723H23.2539V55.9404H5.19382V29.0904H18.7921V37.9383H23.2435V29.0904H23.2539V24.6431H23.2435V24.6138Z" fill="white"/>
<path d="M68.0868 29.0061V60.3535H72.5382V29.0061V24.54H68.0868H59.0565H54.5418V29.0061V55.9062H36.672V60.3723H54.5418H58.0393H59.0565V29.0061H68.0868Z" fill="white"/>
<path d="M108.341 15.7109H99.3743V20.177H108.341V15.7109Z" fill="white"/>
<path d="M94.9229 29.0905H103.974V51.44H94.9229V29.0905ZM81.4731 29.0905H90.4715V51.44H81.4731V29.0905ZM108.341 51.44V29.0905V24.6432V24.6243H77.0217V24.6432V29.0905V51.44V55.7504V55.9062H90.4715V60.3535H94.9229V55.9062H103.974H108.341V51.44Z" fill="white"/>
<path d="M68.2199 64.9188L66.8849 66.7728V64.9188H66.0894V69.2004H66.8849V67.0705L68.2199 69.2004H69.1753L67.6007 66.8517L69.1753 64.9188H68.2199Z" fill="white"/>
<mask id="mask0_2_1299" style="mask-type:luminance" maskUnits="userSpaceOnUse" x="1" y="0" width="134" height="80">
<path d="M1 8.1402e-08H135V80H1V8.1402e-08Z" fill="white"/>
</mask>
<g mask="url(#mask0_2_1299)">
<path d="M74.7954 67.7922C74.6639 68.02 74.4871 68.2011 74.2654 68.3351C74.0432 68.4691 73.8041 68.5361 73.5481 68.5361C73.293 68.5361 73.0544 68.4691 72.8322 68.3356C72.6106 68.2021 72.4342 68.0215 72.3037 67.7942C72.1732 67.5674 72.1079 67.3218 72.1079 67.0588C72.1079 66.7908 72.1727 66.5457 72.3022 66.3234C72.4317 66.1005 72.6091 65.9259 72.8337 65.7983C73.0589 65.6703 73.307 65.6068 73.578 65.6068C73.8275 65.6068 74.0611 65.6733 74.2793 65.8058C74.498 65.9383 74.6714 66.1159 74.7999 66.3387C74.9284 66.5615 74.9927 66.8017 74.9927 67.0588C74.9927 67.3198 74.9269 67.5644 74.7954 67.7922ZM74.6614 65.1354C74.3122 64.9374 73.9276 64.8386 73.5092 64.8386C73.1152 64.8386 72.7495 64.9398 72.4108 65.1423C72.0726 65.3448 71.8036 65.6182 71.6043 65.9626C71.4046 66.3075 71.3049 66.6792 71.3049 67.0781C71.3049 67.4801 71.4056 67.8523 71.6063 68.1942C71.8071 68.5361 72.08 68.8065 72.4243 69.006C72.7685 69.205 73.1431 69.3047 73.5466 69.3047C73.9496 69.3047 74.3232 69.205 74.6689 69.006C75.0141 68.8065 75.2871 68.5361 75.4873 68.1942C75.6881 67.8523 75.7882 67.4801 75.7882 67.0781C75.7882 66.6682 75.6876 66.2911 75.4868 65.9477C75.2861 65.6043 75.0106 65.3334 74.6614 65.1354Z" fill="white"/>
<path d="M80.5819 66.6329H79.0526V64.9189H78.2571V69.2H79.0526V67.407H80.5819V69.2H81.3844V64.9189H80.5819V66.6329Z" fill="white"/>
<path d="M85.3332 65.8063C85.5508 65.6733 85.786 65.6068 86.038 65.6068C86.2472 65.6068 86.4555 65.6559 86.6627 65.7542C86.7613 65.8009 86.846 65.851 86.9167 65.9056C86.988 65.9596 87.0707 66.0371 87.1648 66.1383H88.0709C87.9883 65.9725 87.917 65.8455 87.8577 65.7572C87.7985 65.6689 87.7247 65.5825 87.6361 65.4981C87.4273 65.2897 87.1838 65.1275 86.9038 65.0118C86.6243 64.8962 86.3354 64.8381 86.037 64.8381C85.6415 64.8381 85.2734 64.9384 84.9322 65.1379C84.5909 65.3374 84.3209 65.6078 84.1212 65.9492C83.9209 66.2906 83.8208 66.6608 83.8208 67.0588C83.8208 67.4608 83.9214 67.8344 84.1227 68.1793C84.3234 68.5242 84.5954 68.7981 84.9391 69.0006C85.2823 69.2031 85.653 69.3043 86.0505 69.3043C86.2433 69.3043 86.4336 69.2795 86.6219 69.2294C86.8106 69.1792 86.9895 69.1063 87.1588 69.0105C87.3282 68.9147 87.4831 68.7991 87.6241 68.6641C87.7158 68.5699 87.7895 68.4815 87.8453 68.3987C87.9011 68.3168 87.9683 68.1957 88.047 68.0354H87.122C87.0144 68.1426 86.9232 68.223 86.849 68.2761C86.7748 68.3292 86.6841 68.3793 86.5775 68.4259C86.4042 68.4994 86.2268 68.5361 86.0455 68.5361C85.7954 68.5361 85.5608 68.4691 85.3421 68.3356C85.1234 68.2021 84.9491 68.023 84.8191 67.7982C84.6891 67.5734 84.6238 67.3308 84.6238 67.0707C84.6238 66.8087 84.6876 66.5656 84.8151 66.3418C84.9426 66.1179 85.1155 65.9393 85.3332 65.8063Z" fill="white"/>
<path d="M90.0679 65.6873H90.8589V69.2001H91.654V65.6873H92.455V64.9186H90.0679V65.6873Z" fill="white"/>
<path d="M96.574 66.5621C96.5028 66.6579 96.4076 66.7244 96.2891 66.7611C96.1964 66.7929 96.043 66.8087 95.8288 66.8087H95.7556H95.6704H95.5299V65.6872H95.6704H95.7615H95.8288C96.0161 65.6872 96.1611 65.6991 96.2637 65.723C96.3912 65.7567 96.4928 65.8197 96.568 65.9115C96.6433 66.0033 96.6806 66.111 96.6806 66.2351C96.6806 66.3572 96.6452 66.4663 96.574 66.5621ZM96.9063 65.1439C96.7369 65.0292 96.5576 64.9622 96.3683 64.9429C96.2318 64.927 96.0241 64.9191 95.7441 64.9191H94.7344V69.2001H95.5299V67.5769H95.6823C96.1586 67.5769 96.4829 67.5466 96.6552 67.4861C96.7758 67.4395 96.8779 67.3824 96.9621 67.3149C97.1215 67.1928 97.247 67.035 97.3387 66.842C97.4303 66.6489 97.4761 66.4445 97.4761 66.2291C97.4761 66.0098 97.4253 65.8039 97.3247 65.6113C97.2231 65.4188 97.0841 65.263 96.9063 65.1439Z" fill="white"/>
<path d="M101.23 67.023L100.323 64.9189H99.4478L100.808 67.7793L100.078 69.2H100.955L103.073 64.9189H102.197L101.23 67.023Z" fill="white"/>
<path d="M107.403 64.9188L106.068 66.7728V64.9188H105.273V69.2004H106.068V67.0705L107.403 69.2004H108.359L106.784 66.8517L108.359 64.9188H107.403Z" fill="white"/>
<path d="M110.361 65.6873H111.152V69.2001H111.947V65.6873H112.748V64.9186H110.361V65.6873Z" fill="white"/>
<path d="M118.29 67.7922C118.158 68.02 117.981 68.2011 117.76 68.3351C117.538 68.4691 117.298 68.5361 117.042 68.5361C116.787 68.5361 116.549 68.4691 116.327 68.3356C116.105 68.2021 115.929 68.0215 115.798 67.7942C115.668 67.5674 115.602 67.3218 115.602 67.0588C115.602 66.7908 115.667 66.5457 115.797 66.3234C115.926 66.1005 116.103 65.9259 116.328 65.7983C116.553 65.6703 116.801 65.6068 117.072 65.6068C117.322 65.6068 117.556 65.6733 117.774 65.8058C117.992 65.9383 118.166 66.1159 118.294 66.3387C118.423 66.5615 118.487 66.8017 118.487 67.0588C118.487 67.3198 118.421 67.5644 118.29 67.7922ZM118.156 65.1354C117.807 64.9374 117.422 64.8386 117.004 64.8386C116.61 64.8386 116.244 64.9398 115.905 65.1423C115.567 65.3448 115.298 65.6182 115.099 65.9626C114.899 66.3075 114.799 66.6792 114.799 67.0781C114.799 67.4801 114.9 67.8523 115.101 68.1942C115.301 68.5361 115.574 68.8065 115.919 69.006C116.263 69.205 116.637 69.3047 117.041 69.3047C117.444 69.3047 117.818 69.205 118.163 69.006C118.508 68.8065 118.781 68.5361 118.982 68.1942C119.182 67.8523 119.283 67.4801 119.283 67.0781C119.283 66.6682 119.182 66.2911 118.981 65.9477C118.78 65.6043 118.505 65.3334 118.156 65.1354Z" fill="white"/>
<path d="M123.591 66.5621C123.52 66.6579 123.425 66.7244 123.306 66.7611C123.214 66.7929 123.06 66.8087 122.846 66.8087H122.773H122.687H122.547V65.6872H122.687H122.779H122.846C123.033 65.6872 123.178 65.6991 123.281 65.723C123.408 65.7567 123.51 65.8197 123.585 65.9115C123.66 66.0033 123.698 66.111 123.698 66.2351C123.698 66.3572 123.662 66.4663 123.591 66.5621ZM123.923 65.1439C123.754 65.0292 123.575 64.9622 123.385 64.9429C123.249 64.927 123.041 64.9191 122.761 64.9191H121.751V69.2001H122.547V67.5769H122.699C123.176 67.5769 123.5 67.5466 123.672 67.4861C123.793 67.4395 123.895 67.3824 123.979 67.3149C124.139 67.1928 124.264 67.035 124.356 66.842C124.447 66.6489 124.493 66.4445 124.493 66.2291C124.493 66.0098 124.442 65.8039 124.342 65.6113C124.24 65.4188 124.101 65.263 123.923 65.1439Z" fill="white"/>
</g>
</svg>

<svg width="136" height="80" fill="none" xmlns="http://www.w3.org/2000/svg"><path d="M130.694 24.643V46.99l-13.418 8.187V24.643h-4.452v35.814h4.329l.014.023.038-.023h.071v-.044l13.418-8.186v17.078h4.451V24.643h-4.451zM32.062 51.44h18.06v-4.466h-18.06V29.109h18.06v-4.485H27.61v44.662h31.383v-4.448H32.062V51.44zm-8.818-26.826h-4.452v.03H.742v35.763h4.452v-.035h18.06V55.94H5.194V29.09h13.598v8.848h4.451V29.09h.01v-4.447h-.01v-.03z" fill="#fff"/><path d="M68.087 29.006v31.347h4.451V24.54H54.542v31.366h-17.87v4.466h22.384V29.006h9.03zm40.254-13.296h-8.967v4.467h8.967v-4.466zM94.923 29.09h9.051v22.35h-9.051V29.09zm-13.45 0h8.999v22.35h-8.999V29.09zm26.868 22.35V24.624h-31.32v31.282h13.45v4.447h4.452v-4.447h13.418V51.44zM68.22 64.919l-1.335 1.854v-1.854h-.796V69.2h.796v-2.13l1.335 2.13h.955l-1.574-2.348 1.574-1.933h-.955z" fill="#fff"/><mask id="a" style="mask-type:luminance" maskUnits="userSpaceOnUse" x="1" y="0" width="134" height="80"><path d="M1 0h134v80H1V0z" fill="#fff"/></mask><g mask="url(#a)" fill="#fff"><path d="M74.795 67.792a1.5 1.5 0 01-.53.543 1.365 1.365 0 01-.717.201 1.37 1.37 0 01-.716-.2 1.484 1.484 0 01-.528-.542 1.451 1.451 0 01-.196-.735 1.434 1.434 0 01.726-1.26 1.48 1.48 0 01.744-.192c.25 0 .483.066.701.199a1.474 1.474 0 01.714 1.253c0 .26-.066.505-.198.733zm-.134-2.657a2.297 2.297 0 00-1.152-.296c-.394 0-.76.1-1.098.303a2.26 2.26 0 00-.807.82c-.2.346-.3.717-.3 1.116a2.228 2.228 0 001.12 1.928c.345.199.72.299 1.123.299s.776-.1 1.122-.299a2.218 2.218 0 001.12-1.928c0-.41-.101-.787-.302-1.13a2.19 2.19 0 00-.826-.813zm5.921 1.498h-1.53v-1.714h-.795V69.2h.796v-1.793h1.529V69.2h.802v-4.281h-.802v1.714zm4.751-.827c.218-.133.453-.2.705-.2.21 0 .418.05.625.148.098.047.183.097.254.152.071.054.154.131.248.232h.906a3.568 3.568 0 00-.213-.38 2.23 2.23 0 00-.954-.745 2.247 2.247 0 00-.867-.175c-.396 0-.764.1-1.105.3-.341.2-.611.47-.81.811a2.152 2.152 0 00-.301 1.11c0 .402.1.775.302 1.12.2.345.472.62.816.822a2.15 2.15 0 001.112.303 2.27 2.27 0 001.574-.64c.09-.094.165-.183.22-.265a3.13 3.13 0 00.202-.364h-.925a2.354 2.354 0 01-.273.241 1.5 1.5 0 01-.272.15 1.327 1.327 0 01-1.235-.09 1.497 1.497 0 01-.718-1.265 1.47 1.47 0 01.71-1.264zm4.735-.119h.79V69.2h.796v-3.513h.801v-.768h-2.387v.768zm6.506.875a.547.547 0 01-.285.2c-.093.03-.246.047-.46.047h-.299v-1.122h.299c.187 0 .332.012.435.036a.57.57 0 01.304.189.493.493 0 01.113.323.534.534 0 01-.107.327zm.332-1.418a1.159 1.159 0 00-.538-.201 5.916 5.916 0 00-.624-.024h-1.01V69.2h.796v-1.623h.152c.477 0 .8-.03.973-.09.12-.047.223-.105.307-.172.16-.122.285-.28.377-.473a1.42 1.42 0 00.137-.613c0-.22-.05-.425-.151-.618a1.26 1.26 0 00-.419-.467zm4.324 1.879l-.907-2.104h-.875l1.36 2.86-.73 1.421h.877l2.118-4.281h-.876l-.967 2.104zm6.173-2.104l-1.335 1.854v-1.854h-.795V69.2h.795v-2.13l1.335 2.13h.956l-1.575-2.348 1.575-1.933h-.956zm2.958.768h.791V69.2h.795v-3.513h.801v-.768h-2.387v.768zm7.929 2.105a1.51 1.51 0 01-.53.543 1.367 1.367 0 01-.718.201c-.255 0-.493-.067-.715-.2a1.486 1.486 0 01-.725-1.277 1.43 1.43 0 01.726-1.26c.225-.129.473-.192.744-.192.25 0 .484.066.702.199a1.474 1.474 0 01.713 1.253c0 .26-.066.505-.197.733zm-.134-2.657a2.297 2.297 0 00-1.152-.296c-.394 0-.76.1-1.099.303a2.257 2.257 0 00-.806.82c-.2.346-.3.717-.3 1.116 0 .402.101.774.302 1.116.2.342.473.612.818.812.344.199.718.299 1.122.299.403 0 .777-.1 1.122-.299a2.227 2.227 0 00-.007-3.87zm5.435 1.427a.545.545 0 01-.285.2c-.092.03-.246.047-.46.047h-.299v-1.122h.299c.187 0 .332.012.435.036a.57.57 0 01.304.189.536.536 0 01.006.65zm.332-1.418a1.155 1.155 0 00-.538-.201 5.905 5.905 0 00-.624-.024h-1.01V69.2h.796v-1.623h.152c.477 0 .801-.03.973-.09a1.14 1.14 0 00.307-.172c.16-.122.285-.28.377-.473a1.42 1.42 0 00.137-.613c0-.22-.051-.425-.151-.618a1.264 1.264 0 00-.419-.467z"/></g></svg>
